X:65
T: Die Koenigskinder
N: Q0020H
O: Mitteleuropa, Deutschland
N: Pause gemaess der vorgezeichneten Taktart korrigiert (1. Zeile)
N: Die"Elslein"-Melodie wird in direkten Zusammenhang zur Balladengruppe
N: gestellt.
R: Ballade, Liebe, Trennung, Tod
M: 4/4
L: 1/16
K: G
 | G4_B4A4G4 | A4A4d8 |
G4A2A2_B4G2G2 | =F8z4
F4 | A2A2_B4c6BA | G4_B4A4
G4 | =F4D4F2G2A4 | G4z12

